X: 28297
T: Mrs. Violet Eunson
R: waltz
M: 3/4
K: Fdorian
z4 E2|G4 F2|F2 E2 G2|B2 c2 G2|B4 B2|c4 B2|B2 G2 B2|E2 G2 F2|
B4 E2|G4 F2|F2 E2 B,2|C2 E2 B2|c4 c2|e4 c2|c2 B2 G2|B,2 C2 E2|
E4 e2|e4 d2|d2 c2 B2|B2 G2 c2|B4 e2|e4 d2|d2 c2 B2|G2 E2 G2|
F4 E2|G4 F2|F2 E2 G2|B2 G2 B2|c4 c2|e4 c2|1 c2 B2 G2|
B,2 C2 E2|E4 z2:|2 c2 B2 B,2|C2 B,2 C2|E4 z2||

